X:1
T:Title
%%score { ( 1 4 ) | ( 2 3 ) }
L:1/8
M:4/4
K:Db
V:1 treble nm="Grand Piano"
V:4 treble 
V:2 bass 
V:3 bass 
V:1
 z4 z2[Q:1/4=94] AA | [Fd][Fd][_Fc][FB] [=FB][A,FA][A,DF][A,DF] | %2
 [A,CA][A,DA][A,EA][A,EG] [A,DF]2 [A,DF][A,DF] | [A,DF][A,CE][A,CE][A,DF] [CEG][CEA][EGc][CGB] | %4
 [DFA]4 [DF]2 AA | [Fd][Fd][Fd][Fc] cBBB | [FB][FB][FB][FA] G2 BB | Addd dcBc |[M:3/4] [DFd]6 | %9
[M:1/4] AA |[M:4/4] [Fd][Fd][Fd][Fd] edcB | A6 z2 | A2 z C CCAB | A2 z D DDA[GA] | %14
 [Fd][Fd][Fd][Fd] [Ge][Gd][Gc][GB] | A2- [GA-][GA-] [FA]2 [FA][FA] | %16
 BBBB AAAA[Q:1/4=91][Q:1/4=88][Q:1/4=85][Q:1/4=82][Q:1/4=79][Q:1/4=76][Q:1/4=73] |[M:3/4] [FA]6 |] %18
V:2
 z4 z2 A,A, | [D,A,][D,A,][D,=G,][D,G,] [D,A,]D,D,D, | A,,B,,C,A,, D,2 D,D, | %3
 A,,A,,A,,A,, A,A,A,A, | z4 A,2 A,A, | [D,A,][D,A,][D,=A,][D,A,] [G,B,G][G,DG][G,DG][G,DG] | %6
 [=D,B,][D,B,][D,B,][D,B,] [E,B,E]2[K:treble] [=G,=D_F][G,DF] | %7
 [A,DF][A,FA][A,FA][A,FA] [A,EG][A,EG][A,DG][A,EG] |[M:3/4][K:bass] D,6 |[M:1/4] A,A, | %10
[M:4/4] [D,A,][D,A,][D,A,][D,A,] [G,B,G][G,B,G][G,CG][G,DG] | D,2 z E D,2[K:treble] FF | %12
 G2 [A,C]A, A,A,GG | F2[K:bass] [D,D]F, B,A,[F,DF][E,C] | %14
 [D,A,][D,A,][D,=A,][D,A,] [D,B,][D,B,][D,C][D,D] | [D,D]2 [A,C][A,E] [D,D]2 [D,D][D,D] | %16
 [G,DG][G,DG][G,DG][G,DG] [A,DF][A,DF][A,CE][A,EG] |[M:3/4][K:bass] [D,D]6 |] %18
V:3
 x8 | x8 | x8 | x8 | D,6 z2 | x8 | x6[K:treble] x2 | x8 |[M:3/4][K:bass] x6 |[M:1/4] x2 | %10
[M:4/4] x8 | z2 A,2 z4[K:treble] | x8 | x2[K:bass] x6 | x8 | x8 | x8 |[M:3/4][K:bass] x6 |] %18
V:4
 x8 | x8 | x8 | x8 | x8 | x8 | x8 | x8 |[M:3/4] x6 |[M:1/4] x2 |[M:4/4] x8 | %11
 [DF]2 .[CG]2 [DF]2 AB | z2 E4 z2 | z2 F4 z2 | x8 | F2 z2 z4 | x8 |[M:3/4] x6 |] %18

